X:69
T:Nspolskan
R:Polska
Z:Transcribed to abcby Jon Magnusson 080828
O:Ns, Dalarna
M:3/4
L:1/8
K:D
(3:2:4 A2a2ba g>e|(3:2:4 f2efa2 g>e|(3:2:5 d2cdef g>e|(3:2:5 d2efed c>A|
(3:2:4 A2a2ba g>e|(3:2:4 f2efa2 g>e|(3:2:5 d2cdef g>e|(3 dec d4:|
|:(3 d2A2B2 G>A|(3:2:4 FGE2F2 D2-|(3:2:4 D2d2ef g>e|(3:2:5 d2efed c>A|
|(3 d2A2B2 G>A|(3:2:4 FGE2F2 D2-|(3:2:4 D2d2ef g>e|(3 dec d4:|
